X:10630
T:Kjerringa med staven
C:anon., arr. Frank Nordberg
O:Norway
R:Springdans
Z:Transcribed by Frank Nordberg - http://www.musicaviva.com
F:http://abc.musicaviva.com/tunes/norway/kjerringa-d/kjerringa-d-ddad1.abc
V:1 Program 1 25 up %Acoustic guitar
V:2 Program 1 25 merge down %Acoustic guitar
M:3/4
L:1/8
Q:1/4=130
K:D
V:1
a2a2f>f|a4f2|a2a>a f>f|a4f2|
V:2
[D,4D4A4][D2A2]|[D,4D4A4][D2A2]|[D,4D4A4][D2A2]|[D,4D4A4][D2A2]|
%
V:1
|:d>e f>g a>f|e>f g>a f2:|d2f2e>c|d4d2|]
V:2
|:[D,4D4A4][D2A2]|[D,4D4A4][D2A2]:|[D,4D4A4][D2A2]|[D,4D4A4][D2A2]|]
W:
W:Kjerringa med staven, h\ogt oppi Hakadalen.
W:\AAtte potter r\omme, fire merker sm\or,
W:s\aa kinna Kari, Ola hadde f\or.
W:Kjerringa med staven. 
W:
W:
W:  From Musica Viva - http://www.musicaviva.com
W:  the Internet center for free sheet music downloads.
